X:1
T:Noreg
T:Noreg
T:Johan Halvorsen
T:Per Sivle
C:Johan Halvorsen
Z:Per Sivle
%%score [ 1 2 3 4 ]
L:1/8
Q:3/8=76
M:9/8
K:Ab
V:1 treble-8 nm="T1"
V:2 treble-8 nm="T2"
V:3 bass nm="B1"
V:4 bass nm="B2"
V:1
"^Friskt og meget markeret"!f! E | !>!A3/2 B/ c !>!B3 !>!G2 (3(F/G/F/) | %2
w: 1.Og|No- reg vart fun- ne, og _ _|
w: 2.Dei|flid- de det Kryk- kja, dei _ _|
 E3/2!<(! A/ c!<)! !>!e3- e z e | !>!f3/2 c/ f !>!g3 f2 (3(e/f/e/) | %4
w: No- reg vart bygt. _ Og|No- reg vart sam- la, og _ _|
w: flid- de det Stav. _ Men|No- reg, det vil in- kje _ _|
 !>!=d3/2 d/!<(! e c3-!<)!!>(! c z!>)!!mf! c | !>!_d3/2 d/ c c3 _B2 B | %6
w: No- reg vart tryggt. _ Og|No- reg vart svi- ke, og|
w: vi- ta der- av. _ Paa|Sjølv- ei- gen Grunn og med|
 !>!c3/2 c/ G A3- A z!<(! c!<)! |"^cresc." !>!_g3/2 g/ f f3 e2 e | !>!f3/2 f/ c d3- d z!f! F | %9
w: No- reg vart strypt. _ Og|No- reg vart ri- ve, og|No- reg vart klyppt. _ Og|
w: Fa- na si rein _ det|fritt or- kar stan- da paa|sjølv- eig- ne Bein. _ Og|
 G A B (!>!e2 c) !>!A2- A | c3/2 A/ c!<(! f3- f!<)! z!ff!"^meget bredere" !>!f | %11
w: No- reg tok spen- ne- tak, _|kom seg paa Fot. _ Og|
w: slik skal det stan- * da, som|du- gan- de Kar _ so|
 !>!a !>!g !>!f (!>!g2 (3f/g/f/) e2 !>!c | !>!e !>!e !>!G !>!A3- A z :|!f! E | %14
w: No- reg det au- * * * ka i|Ev- le og Mot. _|3.Um|
w: sant in- kje Nord- * * * menn "slær|Krok" fyr sin Far. _|_|
 !>!A3/2 B/ c (!>!B3 G2) (3(F/G/F/) | !>!E3/2 A/ c e3- e z e | f3/2 c/ f g3 f2 (3(e/f/e/) | %17
w: No- reg paa- ny _ vert _ _|bas- ta i Band, _ so|fell det fyr svi- ke- full _ _|
w: |||
 =d3/2 d/ e c3- c z!mf! c | _d3/2 d/ c !>!c3 !>!_B2 B | !>!c3/2 c/ G A3- A z c | %20
w: Nord- man- na- hand. _ Men|stu- per det at- ter, vaart|No- reg, fyr Svik, _ lyt|
w: |||
"^cresc." _g3/2 g/ f !>!f3 !>!e2 e | !>!f3/2 f/ c d3- d z!ff!"^meget bredt" F | %22
w: Svi- ka- ren trø y- ver|Nord- man- na- lik. _ Gjev|
w: ||
 G A B (e2 c) !>!A2 A |!<(! !>!c3/2 A/ c!<)! !>!f3- f z!fff! !>!f | %24
w: Han- di di, Bror _ min, me|lo- var og kved: _ Skal|
w: ||
 !>!a !>!g !>!f (!>!g2 (3f/g/f/) !>!e2"^molto rit." c | e f g a3- !fermata!a2 |] %26
w: No- reg gaa un- * * * der, so|vil me gaa med! _|
w: ||
V:2
!f! E | !>!A3/2 B/ A !>!G3 !>!E2 (3(F/G/F/) | E3/2!<(! E/ A!<)! !>!c3- c z c | %3
w: 1.Og|No- reg vart fun- ne, og _ _|No- reg vart bygt. _ Og|
w: 2.Dei|flid- de det Kryk- kja, dei _ _|flid- de det Stav. _ Men|
 !>!c3/2 c/ c !>!c3 c2 c | !>!c3/2 c/!<(! =B c3-!<)!!>(! c z!>)!!mf! G | !>!G3/2 G/ G G3 G2 G | %6
w: No- reg vart sam- la, og|No- reg vart tryggt. _ Og|No- reg vart svi- ke, og|
w: No- reg, det vil in- kje|vi- ta der- av. _ Paa|Sjølv- ei- gen Grunn og med|
 !>!G3/2 G/ G A3- A z!<(! c!<)! |"^cresc." !>!c3/2 c/ c c3 c2 c | !>!c3/2 c/ c d3- d z!f! F | %9
w: No- reg vart strypt. _ Og|No- reg vart ri- ve, og|No- reg vart klyppt. _ Og|
w: Fa- na si rein _ det|fritt or- kar stan- da paa|sjølv- eig- ne Bein. _ Og|
 G A G (!>!BA G) !>!A2- A | A3/2 A/ A!<(! d3- d!<)! z!ff! !>!d | !>!d !>!d !>!d !>!=d3 e2 !>!c | %12
w: No- reg tok spen- * ne- tak, _|kom seg paa Fot. _ Og|No- reg det au- ka i|
w: slik skal det stan- * * da, som|du- gan- de Kar _ so|sant in- kje Nord- menn "slær|
 !>!c !>!c !>!E !>!E3- E z :|!f! E | !>!A3/2 G/ A (!>!G3 E2) (3(F/G/F/) | !>!E3/2 E/ A c3- c z c | %16
w: Ev- le og Mot. _|3.Um|No- reg paa- ny _ vert _ _|bas- ta i Band, _ so|
w: Krok" fyr sin Far. _|_|||
 c3/2 c/ c c3 c2 c | c3/2 c/ =B c3- c z!mf! G | G3/2 G/ G !>!G3 !>!G2 G | !>!G3/2 G/ G A3- A z c | %20
w: fell det fyr svi- ke- full|Nord- man- na- hand. _ Men|stu- per det at- ter, vaart|No- reg, fyr Svik, _ lyt|
w: ||||
"^cresc." c3/2 c/ c !>!c3 !>!c2 c | !>!c3/2 c/ c d3- d z!ff! F | G A G (BAG) !>!A2 A | %23
w: Svi- ka- ren trø y- ver|Nord- man- na- lik. _ Gjev|Han- di di, Bror _ _ min, me|
w: |||
!<(! !>!A3/2 A/ A!<)! !>!d3- d z!fff! !>!d | !>!d !>!d !>!d !>!=d3 !>!e2 c | %25
w: lo- var og kved: _ Skal|No- reg gaa un- der, so|
w: ||
 c e _d (fdf !fermata!e2) |] %26
w: vil me gaa med! _ _ _|
w: |
V:3
!f! E, | !>!E,3/2 E,/ E, !>!E,3 !>!D,2 D, | C,3/2!<(! C,/ E,!<)! !>!A,3- A, z A, | %3
w: 1.Og|No- reg vart fun- ne, og|No- reg vart bygt. _ Og|
w: 2.Dei|flid- de det Kryk- kja, dei|flid- de det Stav. _ Men|
 !>!A,3/2 A,/ A, !>!G,3 A,2 A, | !>!A,3/2 A,/!<(! G, E,2 G,!<)!!>(! G,3/2 F,/!>)!!mf! E, | %5
w: No- reg vart sam- la, og|No- reg vart tryggt. Og No- reg vart|
w: No- reg, det vil in- kje|vi- ta der- av. Paa sjølv- ei- gen|
 !>!F,3 F,3 !>!F,3 | !>!F,3/2 F,/ =E, F,2 C C3/2 B,/!<(! A,!<)! |"^cresc." !>!B,3 B,3 B,3 | %8
w: svi- ke, og|No- reg vart strypt. Og No- reg vart|ri- ve, og|
w: Grunn og med|Fa- na si rein det fritt or- kar|stan- da paa|
 !>!B,3/2 B,/ =A, B,2 F,!<(! !>!F,3/2 E,/!<)!!f! D, | !>!E,3 !>!E,3 !>!F,3 | %10
w: No- reg vart klyppt. Og No- reg tok|Spen- ne- tak,|
w: sjølv- eig- ne Bein. Og slik skal det|stan- da, som|
 _G,3!<(! F,2 A, D!<)! z!ff! !>!A, | !>!F, !>!=G, !>!A, !>!A,3 G,2 !>!A, | %12
w: kom seg paa Fot. Og|No- reg det au- ka i|
w: du- gan- de Kar so|sant in- kje Nord- menn "slær|
 !>!A, !>!F, (!>!E,/D,/) !>!C,3- C, z :|!f! E, | !>!E,3/2 E,/ E, (!>!E,3 D,2) D, | %15
w: Ev- le og _ Mot. _|3.Um|No- reg paa- ny _ vert|
w: Krok" fyr sin _ Far. _|_||
 !>!C,3/2 C,/ E, A,3- A, z A, | A,3/2 A,/ A, G,3 A,2 A, | %17
w: bas- ta i Band, _ so|fell det fyr svi- ke- full|
w: ||
 A,3/2 A,/ G, E,2 !>!G,!>(! !>!G,3/2 F,/!>)!!mf! E, | F,3 !>!F,3 !>!F,3 | %19
w: Nord- man- na- hand. Men stu- per det|at- ter, vaart|
w: ||
 !>!F,3/2 F,/ E, F,2 C !>!C3/2 B,/ A, |"^cresc." !>!B,3 !>!B,3 !>!B,3 | %21
w: No- reg, fyr Svik, lyt Svi- ka- ren|trø y- ver|
w: ||
 !>!B, B, =A, B,2 F, F,3/2 E,/!ff! D, | !>!E,3 !>!E,3 !>!F,3 | %23
w: Nord- man- na- lik. Gjev Han- di di,|Bror min, me|
w: ||
!<(! !>!_G,3!<)! !>!F,2 A, D z!fff! !>!A, | !>!F, !>!=G, !>!A, !>!A,3 !>!G,2 A, | %25
w: lo- var og kved: Skal|No- reg gaa un- der, so|
w: ||
 A, =A, B, (DB,=B, !fermata!C2) |] %26
w: vil me gaa med! _ _ _|
w: |
V:4
!f! E, | !>!C,3/2 B,,/ A,, !>!E,3 !>!D,2 D, | C,3/2!<(! C,/ E,!<)! !>!A,3- A, z G, | %3
w: 1.Og|No- reg vart fun- ne, og|No- reg vart bygt. _ Og|
w: 2.Dei|flid- de det Kryk- kja, dei|flid- de det Stav. _ Men|
 !>!F,3/2 F,/ F, !>!E,3 =D,2 E, | !>!F,3/2 F,/!<(! G, C,2 E,!<)!!>(! E,3/2 =D,/!>)!!mf! C, | %5
w: No- reg vart sam- la, og|No- reg vart tryggt. Og No- reg vart|
w: No- reg, det vil in- kje|vi- ta der- av. Paa sjølv- ei- gen|
 (!>!B,,2 C,) _D,3 !>!D,3 | !>!C,3/2 C,/ C, F,2 A, A,3/2 G,/!<(! F,!<)! | %7
w: svi- * ke, og|No- reg vart strypt. Og No- reg vart|
w: Grunn _ og med|Fa- na si rein det fritt or- kar|
"^cresc." (!>!_E,2 F,) _G,3 G,3 | !>!F,3/2 F,/ F, B,,2 D,!<(! !>!D,3/2 C,/!<)!!f! B,, | %9
w: ri- * ve, og|No- reg vart klyppt. Og No- reg tok|
w: stan- * da paa|sjølv- eig- ne Bein. Og slik skal det|
 (!>!E,2 D,) !>!C,3 !>!F,3 | E,3!<(! D,2 A,, D,!<)! z!ff! !>!C, | %11
w: Spen- * ne- tak,|kom seg paa Fot. Og|
w: stan- * da, som|du- gan- de Kar so|
 !>!B,, !>!B,, !>!B,, !>!=B,,3 C,2 !>!F, | !>!E, !>!E, !>!E, !>!A,,3- A,, z :|!f! E, | %14
w: No- reg det au- ka i|Ev- le og Mot. _|3.Um|
w: sant in- kje Nord- menn "slær|Krok" fyr sin Far. _|_|
 !>!C,3/2 B,,/ A,, (!>!E,3 D,2) D, | !>!C,3/2 C,/ E, A,3- A, z G, | F,3/2 F,/ F, E,3 =D,2 E, | %17
w: No- reg paa- ny _ vert|bas- ta i Band, _ so|fell det fyr svi- ke- full|
w: |||
 F,3/2 F,/ G, C,2 !>!E,!>(! !>!E,3/2 =D,/!>)!!mf! C, | (B,,2 C,) !>!_D,3 !>!D,3 | %19
w: Nord- man- na- hand. Men stu- per det|at- * ter, vaart|
w: ||
 !>!C,3/2 C,/ C, F,2 A, !>!A,3/2 G,/ F, |"^cresc." (!>!_E,2 F,) !>!_G,3 !>!G,3 | %21
w: No- reg, fyr Svik, lyt Svi- ka- ren|trø * y- ver|
w: ||
 !>!F, F, F, B,,2 D, D,3/2 C,/!ff! B,, | (!>!E,2 D,) !>!C,3 !>!F,3 | %23
w: Nord- man- na- lik. Gjev Han- di di,|Bror * min, me|
w: ||
!<(! !>!E,3!<)! !>!D,2 [A,,A,] [D,D] z!fff! !>![C,A,] | !>!B,, !>!B,, !>!B,, !>!B,,3 !>!C,2 F, | %25
w: lo- var og kved: Skal|No- reg gaa un- der, so|
w: ||
 E, E, E, [_A,,E,]3- !fermata![A,,E,]2 |] %26
w: vil me gaa med! _|
w: |

